X:125
T:Pigopolskan
R:sl\"angpolska
H:efter Pehr H\"orberg
A:Sm{\aa}land
Z:id:hn-sp-125
M:3/4
L:1/16
K:Gm
G2G^F G2A2 BAG=F | B2BA B2c2 dcBA | g4 d3c dcBA |
BcBA G2^F2 D3D | G2G^F G2A2 BAG=F | B2BA B2c2 dcBA |
g4 d3c dcBA | BAGF G8 :||: d2c2 d4 d2A2 | a3g f2=e2 f4 |
=e3f g2f2 e2d2 | c2cd B2Bc A4 | d2c2 d4 d2A2 |
BcBA G2F2 D3B, | D2EF G4 B2A2 | F2DF G8 :|
<end>
<start>
